X:1
T:Ego Sum Resurrectio
T:Hassler edit BMarble
T:Ego Sum Resurrectio
T:Copyright © 2016 by The Choral Public Domain Library. Edition may be freely distributed, duplicated, performed or recorded.
T:Copyright © 2016 by The Choral Public Domain Library. Edition may be freely distributed, duplicated, performed or recorded.
T:Copyright © 2016 by The Choral Public Domain Library. Edition may be freely distributed, duplicated, performed or recorded.
T:Copyright © 2016 by The Choral Public Domain Library. Edition may be freely distributed, duplicated, performed or recorded.
T:Copyright © 2016 by The Choral Public Domain Library. Edition may be freely distributed, duplicated, performed or recorded.
T:Copyright © 2016 by The Choral Public Domain Library. Edition may be freely distributed, duplicated, performed or recorded.
T:Copyright © 2016 by The Choral Public Domain Library. Edition may be freely distributed, duplicated, performed or recorded.
T:Copyright © 2016 by The Choral Public Domain Library. Edition may be freely distributed, duplicated, performed or recorded.
C:Hassler
C:edit BMarble
Z:Alleluia verse for Corpus Christi
Z:Copyright © 2016 by The Choral Public Domain Library. Edition may be freely distributed, duplicated, performed or recorded.
%%score [ 1 2 3 4 ]
L:1/8
Q:1/2=88
M:4/2
K:Eb
V:1 treble nm="SOPRANO" snm="S."
V:2 treble nm="ALTO" snm="A."
V:3 treble-8 transpose=-12 nm="TENOR" snm="T."
V:4 bass nm="BASS" snm="B."
V:1
"^John 11: 25-26: I am the resurrection and the life; whoever believes in me, even if he dies, will live,and everyone who lives and believes in me will never die." B12 B4 | %1
w: E- go|
 E4 B8 B4 | e6 d2 c4 B4 | c2 d2 e2 B2 c2 BA G2 A2 | B6 AG F8 | G8 z8 | z16 | z16 | B12 B4 | %9
w: sum re- sur-|re- cti- o et|vi- * * * * * * * *||ta,|||e- go|
 E4 B8 B4 | e6 d2 c4 B4 | c6 B2 A2 F2 B4- | B4 =A4 B4 F4 | G4 (B6 _A2 G2 F2 | G4) G4 E4 G4 | %15
w: sum re- sur-|re- cti- o et|vi- * * * *|* * ta, re-|sur- re- * * *|* cti- o et|
 F2 E2 E8 D4 | E16 | z16 | z16 | z16 | z8 z4 B4- | B4 B4 (c2 B2 c2 d2 | e4) e4 (d6 c2 | %23
w: vi- * * *|ta:||||qui|* cre- dit _ _ _|_ in me, _|
 B4) d4 e4 c4 | B8 B8 | z16 | z8 z4 B4- | B4 B4 F8 | z4 B4 (G2 A2 B2 G2 | A4) G4 F4 F2 G2 | %30
w: _ qui cre- dit|in me,||e-|* ti- am|si mor- * * *|* tu- us fu- *|
 A2 B2 c2 B2 c2 d2 e4- | e4 d4 e8- | e8 z8 | z16 | z8 z4 E2 F2 | G2 A2 B2 c2 d2 B2 e4- | %36
w: |* e- rit,|_||vi- *||
 e2 d2 c6 =B=A B4 | c4 G8 G4 | c8 _B8 | z16 | z4 B4 c2 d2 e2 d2 | c2 B2 _A4 G4 B4- | B4 B4 c4 d4 | %43
w: |vet: o- mnis|e- nim||qui vi- * * *|* * * vit et|_ cre- dit in|
 e8 z8 | z4 B4 B4 B4 | (E2 F2 G2 A2 B4) G4 | c4 A4 G2 AB c2 B2 | A2 F2 G2 A2 B6 AG | F8 G8- | %49
w: me,|non mo- ri-|e- * * * * tur|in ae- ter- * * * *||* num,|
 G8 z8 | z16 | z4 e4 e4 e4 | (A2 B2 c2 d2 e4) d4 | c4 B8 =A4 | B8 z8 | z4 B4 B4 B4 | %56
w: _||non mo- ri-|e- * * * * tur|in ae- ter-|num,|non mo- ri-|
 G2 F2 G2 _A2 B2 A2 B2 G2 | c8 B4 c4- | c4 B4 A8 | B16 |] %60
w: e- * * * * * * *|* tur in|_ ae- ter-|num.|
V:2
 z16 | E12 E4 | A,4 E8 E4 | A6 G2 F4 E4 | D2 B,2 E6 D2 D2 CD | E6 F2 G8 | C4 G4 G8 | E8 z8 | z16 | %9
w: |E- go|sum re- sur-|re- cti- o et|vi- * * * * * *||ta, et vi-|ta,||
 E12 E4 | C4 E8 E4 | A6 G2 F4 D4 | C8 B,4 D4 | E4 D8 D4 | E12 D4 | (C8 B,8) | %16
w: e- go|sum re- sur-|re- cti- o et|vi- ta, re-|sur- re- cti-|o et|vi- *|
 (B,2 A,2 G,2 F,2 G,8) | z16 | z8 z4 E4- | E4 E4 (F2 E2 F2 G2 | A4) A4 G6 F2 | G2 E2 F4 E4 E4- | %22
w: ta: _ _ _ _||qui|_ cre- dit _ _ _|_ in me, _|_ _ _ qui cre-|
 (E2 D2 C4) (F6 E2 | D4) F4 (E6 F2 | G4) (F6 E2 D4) | (E6 DC B,4) E4 | C8 (D6 E2 | F4) D8 D4 | %28
w: * * * dit _|_ in me, _|_ qui _ _|cre- * * * dit|in me, _|_ e- ti-|
 G8 z4 E4 | (C2 D2 E2 C2 D4) B,4 | F4 A6 G2 G2 FE | F4 F4 E4 G4 | (E2 F2 G2 E2 F4) D4 | C4 F8 G4 | %34
w: am si|mor- * * * * tu-|us fu- * * * *|* e- rit, si|mor- * * * * tu-|us fu- e-|
 (A6 GF G4) G4- | G2 F2 E2 DC F2 D2 G4- | G2 FE F4 G8- | G4 E4 E4 G4- | (G2 FE F4) G4 G,4 | %39
w: rit, _ _ _ vi-||* * * * vet:|_ o- mnis e-|* * * * nim, o-|
 G,4 (B,6 =A,G, A,4) | B,4 G,4 (_A,2 B,2 C2 D2 | E8) E4 G4 | G8 E4 F4 | G4 E8 B,4 | C4 D4 E8 | %45
w: mnis e- * * *|nim qui vi- * * *|* vit et|cre- dit in|me, et cre-|dit in me,|
 z4 E4 E4 E4 | (A,2 B,2 C2 D2 E4) C4 | F4 E4 (D2 B,2 E4-) | (E4 D4) E8 | z8 z4 E4 | %50
w: non mo- ri-|e- * * * * tur|in ae- ter- * *|* * num,|non|
 E4 E4 (A,2 B,2 C2 D2 | E4) B,4 C4 E4 | F2 G2 A2 F2 G2 FE F2 G2 | A2 G2 F2 E2 F8 | F4 F4 C4 F4- | %55
w: mo- ri- e- * * *|* tur in ae-|ter- * * * * * * * *||num, in ae- ter-|
 F2 E2 E6 DC D4 | E16- | E16- | E16- | E16 |] %60
w: |num.|_|||
V:3
 z16 | z16 | z16 | z16 | B12 B4 | E4 B8 B4 | e6 d2 c4 B4 | c2 d2 e2 B2 c2 BA G2 A2 | B6 AG F8 | %9
w: ||||E- go|sum re- sur-|re- cti- o et|vi- * * * * * * * *||
 G4 G8 G4 | c6 B2 A4 G4 | F2 G2 A2 B2 c2 de f4- | f2 ed c4 d4 B4 | E4 (F6 GA B4-) | B4 G4 G4 G4 | %15
w: ta, re- sur-|re- cti- o et|vi- * * * * * * *|* * * * ta, re-|sur- re- * * *|* cti- o et|
 A8 F8 | z4 B8 B4 | (c2 B2 c2 d2 e4) e4 | (d8 c8) | z4 B4 A6 B2 | c2 B2 c2 d2 e6 dc | %21
w: vi- ta:|qui cre-|dit _ _ _ _ in|me, _|qui cre- *||
 B2 AG F4 G4 G4 | G8 z4 B4- | B4 B4 (c2 B2 c2 d2 | e4) d4 (d2 c2 B2 A2 | G4) A4 G4 B4- | %26
w: * * * * dit in|me, qui|_ cre- dit _ _ _|_ in me, _ _ _|_ qui cre- dit|
 B4 =A4 (B6 c2 | d4) B8 B4 | (E2 F2 G2 A2 B4) E4 | F4 E4 B8 | F4 f4 c8 | z4 B4 (G2 A2 B2 G2 | %32
w: _ in me, _|_ e- ti-|am _ _ _ _ si|mor- tu- us|fu- e- rit,|si mor- * * *|
 A4) G4 F4 F2 G2 | A2 B2 c2 B2 c2 d2 e4- | e4 d4 e8- | e8 z8 | c6 d2 e2 dc d4 | c4 c8 _B4 | %38
w: * tu- us fu- *||* e- rit,|_|vi- * * * * *|vet: o- mnis|
 A8 G4 B4- | B4 B4 e8 | d4 e4 e2 d2 c2 B2 | A2 B2 c4 B4 e4 | e8 c4 B4 | E4 G4 G8 | E4 F4 G8 | z16 | %46
w: e- nim, o-|* mnis e-|nim qui vi- * * *|* * * vit et|cre- dit in|me, et cre-|dit in me,||
 z16 | z8 B8 | B4 B4 (E2 F2 G2 A2 | B4) G4 c4 A4 | G2 AB c6 B2 A4- | A4 G4 (A6 G2 | F4) f4 e4 B4 | %53
w: |non|mo- ri- e- * * *|* tur in ae-|ter- * * * * *|* * num, _|_ non mo- ri-|
 f2 e2 d2 cB c8 | B8 =A4 B4 | _A2 G2 G2 FE F8 | E4 B4 G4 G4 | (A2 G2 E2 F2 G4) A4 | G4 B4 c8 | %59
w: e- * * * * *|tur in ae-|ter- * * * * *|num, non mo- ri-|e- * * * * tur|in ae- ter-|
 B16 |] %60
w: num.|
V:4
 z16 | z16 | z16 | z16 | z16 | E,12 E,4 | A,,4 E,8 E,4 | A,6 G,2 F,4 E,4 | D,2 B,,2 E,6 D,C, D,4 | %9
w: |||||E- go|sum re- sur-|re- cti- o et|vi- * * * * *|
 E,16 | z16 | z8 F,8- | F,4 F,4 B,,8 | z4 B,,8 B,,4 | E,6 D,2 C,4 B,,4 | (A,,8 B,,8) | E,16 | %17
w: ta,||e-|* go sum|re- sur-|re- cti- o et|vi- *|ta:|
 z4 E,8 E,4 | (F,2 E,2 F,2 G,2 A,4) A,4 | (G,8 F,8-) | F,8 E,8- | E,4 D,4 C,8- | C,8 B,,8 | z16 | %24
w: qui cre-|dit _ _ _ _ in|me, _|_ cre-|* cit in|_ me,||
 z4 B,,8 B,,4 | (C,2 B,,2 C,2 D,2 E,8) | F,8 B,,8- | B,,8 z4 B,4- | B,4 B,4 E,8 | z16 | z16 | %31
w: qui cre-|dit _ _ _ _|in me,|_ e-|* ti- am|||
 z8 E,8 | (C,2 D,2 E,2 C,2 D,4) B,,4 | F,4 A,6 G,2 G,2 F,E, | F,4 F,4 E,4 C,2 D,2 | %35
w: si|mor- * * * * tu-|us fu- * * * *|* e- rit, vi- *|
 E,2 F,2 G,2 A,2 B,4 G,4 | A,8 G,8 | C,8 z8 | z8 z4 E,4- | E,4 D,4 C,8 | B,,4 E,4 A,,8- | %41
w: ||vet:|o-|* mnis e-|nim qui vi-|
 A,,8 E,8- | E,8 z8 | z4 E,4 E,8 | C,4 B,,4 E,8- | E,8 z8 | z16 | z16 | z8 z4 E,4 | %49
w: * vit|_|et cre-|dit in me,|_|||non|
 E,4 E,4 (A,,2 B,,2 C,2 D,2 | E,4) C,4 F,4 F,4 | (C,2 D,2 E,4) A,,8 | z16 | F,8 F,4 F,4 | %54
w: mo- ri- e- * * *|* tur in ae-|ter- * * num,||non mo- ri-|
 (B,,2 C,2 D,2 E,2 F,4) B,,4 | C,4 E,4 B,,8 | E,4 E,4 E,4 E,4 | (A,,2 B,,2 C,2 D,2 E,4) A,,4 | %58
w: e- * * * * tur|in ae- ter-|num, non mo- ri-|e- * * * * tur|
 C,4 G,,4 A,,8 | E,16 |] %60
w: in ae- ter-|num.|

